X:1
T:Sylvi
C:Larry Unger
D:Waltz Time CD (Black Socks Press, PO Box 269, Cambridge, MA 02140)
R:Waltz
M:3/4
Q:1/4=160
K:Dm
   |: Ad ef ed | ag ab ag  | fg ag fd     | ef ed ^cB   |
      Ad ef ed | ag ab ag  | af da fd     | ed ^ce d2  :|
      ba gb ag | fg a2-ad' | ^c'd'e'2 g'2 | f'2 e'2 f'2 |
      ba gb ag | fg a2-af  | ef ge ^cB    | A4-AA       |
      Bc de fb | de fg ad  | a2 g2 e2     | de fd ef    |
      gb ag fb | a2 f2 d2  | e2 f2 e^c    | d6         ||
